!!!COM: Bach, Johann Sebastian
!!!OPR: Joh. Seb. Bachs vierstimmige Choralgesänge
!!!XEN: Four-part Chorales
!!!OTL: 3. Ach Gott und Herr, wie gross und schwer
!!!SCT: BWV 255
!!!SCA: Thematisch-systematisches Verzeichnis der musikalischen Werke Johann Sebastian Bach: Bach-Werke-Verzeichnis (Schmieder)
!!!YOR: Bach Gesellschaft Edition xxxix
!!!ENC: Steven Rasmussen
!!!CDT: 1685/3//-1750/7/28/
!!!OCY: Deutschland
!!!YEC: Copyright (c) 1994, 2000 Center for Computer Assisted Research in the Humanities
!!!YEM: Rights to all derivative editions reserved
!!!YEN: United States of America
**kern	**kern	**kern	**kern	**silbe
*I:[BASSO]	*I:[TENORE]	*I:[ALTO]	*I:[SOPRANO]	*I:[SOPRANO]
*clefF4	*clefGv2	*clefG2	*clefG2	*
*k[]	*k[]	*k[]	*k[]	*
*C:	*C:	*C:	*C:	*
*M4/4	*M4/4	*M4/4	*M4/4	*
4C	4e	4g	4cc	Ach
=1	=1	=1	=1	=1
4G	4d	4g	4b	Gott
4D	8dL	4f#	4a	und
.	8cJ	.	.	.
4GG;	4B;	4d;	4g;	Herr,
4C	8cL	8eL	4g	wie
.	8B-J	8dJ	.	.
=2	=2	=2	=2	=2
8FL	8AL	4c	4a	gross
8EJ	8GJ	.	.	.
4D	4F	4d	4b	und
4C;	4G;	4e;	4cc;	schwer
4GG	4B	4g	4dd	sind
=3	=3	=3	=3	=3
4AA	4c	8gL	4cc	mein'
.	.	8f#J	.	.
8BBL	4d	4g	4b	be-
8CJ	.	.	.	.
4D	4d	4f#	4a	-gang-
4G	4d	4g	8bL	-ne
.	.	.	8ccJ	.
=4	=4	=4	=4	=4
4C	4e	4g	2a	SÃ¼n-
4D	8dL	4f#	.	.
.	8cJ	.	.	.
4GG;	4B;	4d;	4g;	-den!
4E	4c	4g	4cc	Da
=5	=5	=5	=5	=5
4D	4d	4f	4b	ist
4C	4e	4g	4cc	Nie-
4G;	4B;	4g;	4dd;	-mand,
4G	4B	4g	4dd	der
=6	=6	=6	=6	=6
8cL	4c	4g	4ee	hel-
8BJ	.	.	.	.
4A	4c	4f#	8ddL	-fen
.	.	.	8ccJ	.
4G;	4B;	4g;	4dd;	kann,
4E	4c	4g	4g	in
=7	=7	=7	=7	=7
4F#	4c	4d	4a	die-
4G#	4B	4d	4b	-ser
4A	8eL	4.c	8ccL	Welt
.	8fJ	.	8ddJ	.
8GnL	8gL	.	8eeL	zu
8FnJ	8cJ	8a	8ffJ	.
=8	=8	=8	=8	=8
4G	4c	4.g	2dd	fin-
4GG	4B	.	.	.
.	.	8f	.	.
4C;	4G;	4e;	4cc;	-den.
==|!	==|!	==|!	==|!	==|!
*-	*-	*-	*-	*-
!!!RWG: Key is interpreted using the Humdrum key tool.
!!!URL-pdf: https://s9.imslp.org/files/imglnks/usimg/6/6b/IMSLP24489-PMLP09471-CCARH_Bach_Chorales.pdf#page=2 Musedata edition
!!!URL-pdf: https://s9.imslp.org/files/imglnks/usimg/7/7a/IMSLP04155-Bach_-_BGA_253-438.pdf#page=4 	Bach-Gesellschaft Ausgabe, Band 39 (pp.175-276) Leipzig: Breitkopf und Härtel, 1892. Plate B.W. XXXIX.
!!!END: 1994/05/03
!!!EMD: Converted from MuseData to Humdrum Dec 19, 2000, by Andreas Kornstaedt using muse2kern.
!!!EED: Craig Stuart Sapp
!!!EEV: 2024/03/31
!!!ONB: Some non-unicode characters
!!!filter-keyboard: satb2gs
